X: 1
T:the Elterwater Hornpipe
C:Wm Irwin
M:4/4
O:England
A:North-West
R:Hornpipe
K:G
Bc|\
dBGB dBGB| ecAc efge| dBGB dBGB| AFDF ABce|\
dBGB dBGB| ecAc efge| dBGB cAFA| G2B2 G2::\
ga|\
bgdg afdf| gece dBGB| cdef gcBA| B2A2 A2ga| \
bgdg afdf| gece dBGB| cedc BAGF| A2G2 G2:|
